app/images/right-line.svg

<svg width="81" height="16" viewBox="0 0 81 16" fill="none" xmlns="http://www.w3.org/2000/svg">
<path d="M1 9C0.447715 9 0 8.55228 0 8C0 7.44772 0.447715 7 1 7L1 9ZM80.7071 7.29289C81.0976 7.68342 81.0976 8.31658 80.7071 8.70711L74.3431 15.0711C73.9526 15.4616 73.3195 15.4616 72.9289 15.0711C72.5384 14.6805 72.5384 14.0474 72.9289 13.6569L78.5858 8L72.9289 2.34315C72.5384 1.95262 72.5384 1.31946 72.9289 0.928932C73.3195 0.538408 73.9526 0.538408 74.3431 0.928932L80.7071 7.29289ZM1 7L80 7V9L1 9L1 7Z" fill="#4BC6EC"/>
</svg>

<svg width="81" height="16" fill="none" xmlns="http://www.w3.org/2000/svg"><path d="M1 9a1 1 0 010-2v2zm79.707-1.707a1 1 0 010 1.414l-6.364 6.364a1 1 0 01-1.414-1.414L78.586 8l-5.657-5.657A1 1 0 0174.343.93l6.364 6.364zM1 7h79v2H1V7z" fill="#4BC6EC"/></svg>
